X:1
T:Title
%%score { ( 1 3 ) | ( 2 4 ) }
L:1/8
M:4/4
K:Db
V:1 treble nm="Grand Piano"
V:3 treble 
V:2 bass 
V:4 bass 
V:1
 z4 z2[Q:1/4=100] D>F | [FA]3 [GB] [FA]FED | G2 B2 d2 cB | [FA]3 [GB] [FA]FED | [CE]6 D>F | %5
 [FA]3 [GB] [FA]FED | G2 B2 d2 cB | [DFA]3[K:bass] [F,D] [A,DF]2 [G,CE]2 |[M:3/4] [F,D]6 | %9
[M:1/4] z z/[K:treble] F/ |[M:4/4] z2 [FA]4 z2 | z2 [FA]6 | [Gc]2 [GB]2 [GA]2 Bc | %13
[M:3/4] [Fd]2 [GB]2 [A,FA]2 |[M:1/4] z z/ F/ |[M:4/4] z2 [FA]4 z2 | z2 [FA]4 z2 | c2 cc cABc | %18
[M:7/8] d-[Fd-][Gd-] [Gd-] [Fd]3 |] %19
V:2
 z4 z2 [D,F,]>[D,A,D] | [D,D]3 [D,D] [D,D][D,A,D][D,G,D][D,F,] | %2
 [G,B,]2 [G,CG]2 [G,B,G]2 [G,CG][G,DG] | [D,D]3 [D,D] [D,D][D,A,D][D,G,D][D,F,] | %4
 [A,,A,]6 [D,F,]>[D,A,D] | [D,D]3 [D,D] [D,D][D,A,D][D,G,D][D,F,] | %6
 [G,B,]2 [G,DG]2 [G,B,G]2 [G,CG][G,DG] | D,3 D, A,,2 A,,2 |[M:3/4] D,6 |[M:1/4] D>D | %10
[M:4/4] D,2 A,,2 D,2 z z/ F/ | D,2 A,,2 D,2 A,,2 | [E,A,]2 [A,,A,]2 [E,A,]2 [A,,A,]2 | %13
[M:3/4] [D,A,]2 [A,,A,]2 D,2 |[M:1/4] D>D |[M:4/4] D,2 A,,2 D,2 z z/ F/ | D,2 A,,2 D,2 A,,2 | %17
 [A,EG]2 [A,EG][A,EG] [A,EG][A,CG][A,DG][A,EG] |[M:7/8][K:bass] [D,D][D,A,][D,B,] [D,B,] [D,A,]3 |] %19
V:3
 x8 | x8 | x8 | x8 | x8 | x8 | x8 | x3[K:bass] x5 |[M:3/4] x6 |[M:1/4] x3/2[K:treble] x/ | %10
[M:4/4] [A,FA]2 A,2 A,2 [GB]>A | [A,DF]2 A,2 A,2 A,2 | z4 z2 G2 |[M:3/4] x6 |[M:1/4] x2 | %15
[M:4/4] [A,FA]2 A,2 A,2 [GB]>A | [A,DF]2 A,2 A,2 A,2 | x8 |[M:7/8] F z z z z z2 |] %19
V:4
 x8 | x8 | x8 | x8 | x8 | x8 | x8 | x8 |[M:3/4] x6 |[M:1/4] x2 |[M:4/4] z4 z2 [A,,A,]2 | x8 | x8 | %13
[M:3/4] x6 |[M:1/4] x2 |[M:4/4] z4 z2 [A,,A,]2 | x8 | x8 |[M:7/8][K:bass] x7 |] %19

